src/assets/icons/payment-icon.svg

<svg width="24" height="24" viewBox="0 0 24 24" fill="none" xmlns="http://www.w3.org/2000/svg">
<g clip-path="url(#clip0_6448_3246)">
<path d="M23.2657 0.486004C23.196 0.312618 23.0623 0.172747 22.8921 0.0954898C22.722 0.0182323 22.5287 0.00953646 22.3523 0.0712111C22.1759 0.132886 22.0301 0.260182 21.9452 0.426619C21.8603 0.593056 21.8429 0.785817 21.8965 0.964804C23.0113 4.1688 20.7985 6.5616 19.1113 7.8432L18.4297 6.8664C18.2005 6.5388 17.6881 6.2664 17.2897 6.2616L13.4641 6.2784C12.9967 6.29252 12.5419 6.43266 12.1477 6.684L0.874857 14.5884C0.612651 14.7729 0.43424 15.0538 0.378688 15.3696C0.323135 15.6854 0.394968 16.0103 0.578457 16.2732L5.70126 23.6028C6.08526 24.1488 6.69846 24.0828 7.24566 23.7012L18.5185 15.7956C18.8425 15.5664 19.2169 15.072 19.3489 14.694L20.5465 10.92C20.6785 10.5432 20.5981 9.9684 20.3689 9.6408L19.9537 9.0456C22.2193 7.3092 24.5713 4.2408 23.2657 0.486004ZM18.0205 11.7156C17.8128 11.861 17.5785 11.964 17.331 12.0188C17.0835 12.0736 16.8276 12.0791 16.578 12.0349C16.3284 11.9908 16.0899 11.8979 15.8762 11.7616C15.6625 11.6253 15.4777 11.4482 15.3325 11.2404C15.0384 10.82 14.9231 10.3001 15.012 9.79476C15.1008 9.28945 15.3866 8.84005 15.8065 8.5452C16.1356 8.31458 16.5286 8.19257 16.9305 8.19623C17.3324 8.19989 17.7231 8.32903 18.0481 8.5656C17.7217 8.7624 17.4973 8.8776 17.4553 8.8956C17.3065 8.96653 17.1863 9.08588 17.1142 9.23409C17.0422 9.38231 17.0226 9.5506 17.0587 9.71139C17.0948 9.87218 17.1845 10.0159 17.313 10.1191C17.4415 10.2223 17.6013 10.2787 17.7661 10.2792C17.8693 10.2792 17.9749 10.2552 18.0745 10.2084C18.3073 10.098 18.5569 9.9672 18.8173 9.8124C18.8772 10.1725 18.8341 10.5421 18.6932 10.8789C18.5522 11.2156 18.319 11.5056 18.0205 11.7156Z" fill="#0071DC"/>
</g>
<defs>
<clipPath id="clip0_6448_3246">
<rect width="24" height="24" fill="white"/>
</clipPath>
</defs>
</svg>

<svg xmlns="http://www.w3.org/2000/svg" width="24" height="24" fill="none"><g clip-path="url(#a)"><path fill="#0071DC" d="M23.266.486a.726.726 0 0 0-1.37.479c1.115 3.204-1.098 5.597-2.785 6.878l-.681-.977c-.23-.327-.742-.6-1.14-.604l-3.826.016a2.6 2.6 0 0 0-1.316.406L.875 14.588a1.21 1.21 0 0 0-.297 1.685l5.123 7.33c.384.546.997.48 1.545.098l11.272-7.905c.325-.23.699-.724.83-1.102l1.199-3.774c.131-.377.051-.952-.178-1.28l-.415-.594c2.265-1.737 4.617-4.805 3.312-8.56m-5.245 11.23a1.93 1.93 0 0 1-3.009-1.921 1.928 1.928 0 0 1 3.036-1.23 7 7 0 0 1-.593.33.727.727 0 0 0 .311 1.384.7.7 0 0 0 .309-.07q.35-.165.742-.397a1.94 1.94 0 0 1-.797 1.904"/></g><defs><clipPath id="a"><path fill="#fff" d="M0 0h24v24H0z"/></clipPath></defs></svg>
